X:1
T: My Brother Tom
C:
R:Jig
Q:180
K:G
M:6/8
L:1/16
D2|D2E2D2 E2G2E2|G2A2B2 c2B2c2|D2E2D2 A2G2E2|G2c2A2 G2E2C2|D2E2D2 A2G2E2|G2A2B2 c2B2c2|e2d2c2 d2c2A2|G2c2A2 G2E2D2|
D2E2D2 E2G2E2|G2A2B2 c2B2c2|D2E2D2 A2G2E2|G2c2A2 G2E2C2|D2E2D2 A2G2E2|G2A2B2 c2B2c2|e2d2c2 d2c2A2|G2c2A2 G2E2D2|
A2B2c2 d2c2d2|e2d2c2 d4c2|A2B2c2 d4e2|=f2e2d2 c2A2G2|A2B2c2 d2c2d2|e2d2c2 d4c2|G2A2B2 c2B2c2|G2c2A2 G2E2C2|
A2B2c2 d2c2d2|e2d2c2 d4c2|A2B2c2 d4e2|=f2e2d2 c2A2G2|=f2e2d2 e2d2c2|d2c2A2 c4A2|G2A2B2 c4A2|c2B2A2 G4||
